X:1
T:Break Now the Bread of Life
T:Text: st. 1-2, Mary A. Lathbury, 1877, alt.; st. 3-4, Alexander Groves, 1842-1909 Tune: William F. Sherwin, 1877
T:64 64 D BREAD OF LIFE www.hymnary.org/text/break_thou_the_bread_of_life
T:Break Now the Bread of Life
T:This hymn is in the public domain. You may freely use this score for personal and congregational worship. If you reproduce the score, please credit Hymnary.org as the source. 
T:This hymn is in the public domain. You may freely use this score for personal and congregational worship. If you reproduce the score, please credit Hymnary.org as the source. 
Z:This hymn is in the public domain. You may freely use this score for personal and congregational worship. If you reproduce the score, please credit Hymnary.org as the source.
%%score ( 1 2 ) ( 3 4 )
L:1/8
M:4/4
K:D
V:1 treble nm="SOPRANO ALTO" snm="S. A."
V:2 treble 
V:3 bass nm="TENOR BASS" snm="T. B."
V:4 bass 
V:1
"^D""^1""^2""^3""^4" F4 D2 F2 | A2"^G" B2"^D" A4 | F4 D2 F2 |"^A" E8 |"^D" F4 D2 F2 | A2 B2 A2 B2 | %6
w: Break now the|bread of life,|dear Lord, to|me,|as once you|broke the loaves be-|
w: Bless your own|word of truth,|dear Lord, to|me,|as when you|blessed the bread by|
w: You are the|bread of life,|dear Lord, to|me,|your ho- ly|word the truth that|
w: O send your|Spir- it now,|dear Lord, to|me,|that he may|touch my eyes and|
"^A/E" c4"^E7" B4 |"^A" A8 |"^A7" E4 F2 G2 |"^D" B2 A2 F4 |1"^A/C#" A4"^E" B2 B2 |"^A""^A7" c8 | %12
w: side the|sea.|Be- yond the|sa- cred page|I seek you,|Lord;|
w: Gal- i-|lee.|Then shall all|bond- age cease,|all fet- ters|fall;|
w: res- cues|me.|Give me to|eat and live|with you a-|bove;|
w: make me|see.|Show me the|truth made plain|with- in your|Word,|
"^D" d4 A2 F2 |"^Em/G" E2 G2 B2 G2 |"^A" E4"^A7" A4 |"^D" D8 |] %16
w: my spir- it|waits for you, O|liv- ing|Word.|
w: and I shall|find my peace, my|All in|all!|
w: teach me to|love your truth, for|you are|love.|
w: for in your|book re- vealed I|see you,|Lord.|
V:2
 D4 A,2 D2 | D2 D2 D4 | D4 D2 D2 | C8 | D4 A,2 D2 | D2 C2 D2 F2 | E4 D4 | C8 | C4 D2 C2 | %9
 D2 D2 D4 |1 E4 F2 E2 | E8 | D4 C2 D2 | E2 E2 E2 D2 | D4 C4 | D8 |] %16
V:3
 A,4 F,2 A,2 | A,2 G,2 F,4 | A,4 A,2 A,2 | A,8 | A,4 F,2 A,2 | A,2 G,2 A,2 A,2 | A,4 (A,2 ^G,2) | %7
 A,8 | A,4 A,2 A,2 | G,2 F,2 A,4 |1 A,4 A,2 ^G,2 | A,8 | A,4 G,2 A,2 | B,2 B,2 B,2 B,2 | A,4 G,4 | %15
 F,8 |] %16
V:4
 D,4 D,2 D,2 | F,2 G,2 D,4 | D,4 F,2 D,2 | A,,8 | D,4 D,2 D,2 | F,2 E,2 F,2 D,2 | E,4 E,4 | A,,8 | %8
 G,4 F,2 E,2 | D,2 D,2 D,4 |1 C,4 D,2 E,2 | (A,4 G,4) | F,4 E,2 D,2 | G,2 G,2 G,2 E,2 | A,4 A,,4 | %15
 D,8 |] %16

